X: 96
T: Chorus Jig
O: Howe 1867
R: reel
Z: 1997 by John Chambers <jc:trillian.mit.edu>
B: NEFR #96
M: C|
L: 1/8
K: Dmix
"A"[|]AG\
| "D"F2 DF AB AG | FA DF A2 d2 | D2 DF AB AF | "A7"GF EF G2 :|
"B"[|]Bc\
| "G"dB cA BG FG | "D7"Ad ^cd A2 B=c| "G"dB cA BG FG | "D7"Ac BA "G"G2 Bc |
| "G"dB cA BG FG | "C"AB cd ef ge | "G"dB cA BG FG | "D7"Ac BA "G"G2 |]
"C"|: ag\
| "D"fd dd fd dd | fd fg "A7"ab ag | "D"fd dd fd dd | "C"=cd ef g2 :|
P: Play ABCB
